X: 72
T: No_166_I_Carry_It_Away.krn
%%abc-version 2.0
%%abcx-abcm2ps-target-version 5.9.1 (29 Sep 2008)
%%abc-creator hum2abc beta
%%abcx-conversion-date 2020/08/10 18:54:57
%%gracespace 0 6 6
%%humdrum-veritas 3366108482
%%humdrum-veritas-data 1178778886
%%linebreak <none>
%%barnumbers 0
L: 1/8
M: 3/4
%%staves {1 2}
V: 1 clef=bass
V: 2 clef=bass
K: G
[V:1] [K:clef=bass][M:3/4]G,2DB,/B,/D2 | 
[V:2] [K:clef=bass][M:3/4]G,,G,, G,,G,, G,,G,, | 
[V:1] {/D} B,G,G,4 | 
[V:2] z6 | 
[V:1] D>B, B,- B,//C//B,//A,// B,3/B,/ | 
[V:2] z6 | 
[V:1] G,E,E,4 ||  
[V:2] z6 ||  
[V:1] [M:2/4]E,G, G,A, ||  
[V:2] [M:2/4]z4 ||  
[V:1] [M:3/4]G,G,G,4 | 
[V:2] [M:3/4]z6 | 
[V:1] G,D/D/ DB,D2 ||  
[V:2] z6 ||  
[V:1] [M:2/4]A,G,/G,/ G,G, ||  
[V:2] [M:2/4]z4 ||  
[V:1] [M:3/4]DB, {/C} B,A,B,2 | 
[V:2] [M:3/4]z6 | 
[V:1] {/B,} G,E,E,4 ||  
[V:2] z6 ||  
[V:1] [M:2/4]E,G, G,A, ||  
[V:2] [M:2/4]z4 ||  
[V:1] [M:3/4]G,G,G,4 |]  
[V:2] [M:3/4]z6 |]  


